X:212
T:Polska efter Johannes Erlandson
T:(SvL Halland 212)
R:Polska
S:Johannes Erlandson
O:Gunnarp, Halland
B:Svenska Låtar Halland
M:3/4
L:1/16
K:A
C4 C2(CD) C2(CD)|C2(CD) C2(CD) E4|e2a2 f2g2 a2f2|g2g2 af^df f2e2|
C4 C2(CD) C2(CD)|C2(CD) C2(CD) E4|e2a2 f2g2 a2f2|b3a (fa)f^d e4:|
|:c3e aece aecA|B2B2 dBGB dBGB|c3e aece aecA|B2B2 dBGB dBGB|
cdcB A2Ac B2Bd|(cB)AG G2A2 A4:|

